.local/share/icons/Gruvbox-Plus-Dark/panel/24/mellowplayer-panel.svg

<svg width="24" height="24" version="1.1" xmlns="http://www.w3.org/2000/svg">
  <defs>
    <style id="current-color-scheme" type="text/css">.ColorScheme-Text { color:#ebdbb2; } .ColorScheme-Highlight { color:#458588; } .ColorScheme-NeutralText { color:#fe8019; } .ColorScheme-PositiveText { color:#689d6a; } .ColorScheme-NegativeText { color:#fb4934; }</style>
  </defs>
  <path class="ColorScheme-Text" d="m9 4a5 5 0 0 0-5 5 5 5 0 0 0 0.305 1.687 3 3 0 0 1 2.695-1.687 3 3 0 0 1 6e-3 0v-2.596s-0.023-0.266 0.185-0.371c0.203-0.101 0.397 0.061 0.397 0.061l1.969 1.17a3 3 0 0 1 2.443-1.264 3 3 0 0 1 1.152 0.232 5 5 0 0 0-4.152-2.232zm5.24 3.008a3 3 0 0 1 0.76 1.992 3 3 0 0 1-0.309 1.318l2.026 1.205s0.283 0.14 0.283 0.473c0 0.334-0.287 0.443-0.287 0.443l-2.035 1.209a3 3 0 0 1 0.322 1.352 3 3 0 0 1-0.758 1.988 5 5 0 0 0 4.758-4.988 5 5 0 0 0-4.76-4.992zm-9.937 6.295a5 5 0 0 0-0.303 1.697 5 5 0 0 0 5 5 5 5 0 0 0 4.158-2.232 3 3 0 0 1-1.158 0.232 3 3 0 0 1-2.465-1.295l-2.06 1.225s-0.14 0.122-0.319 0.043c-0.203-0.091-0.15-0.323-0.15-0.323v-2.65a3 3 0 0 1-6e-3 0 3 3 0 0 1-2.697-1.697z" fill="currentColor"/>
  <path class="ColorScheme-Text" d="m12 6a3 3 0 0 0-2.443 1.266l2.672 1.587 2.464 1.467a3 3 0 0 0 0.307-1.32 3 3 0 0 0-3-3zm-5 3a3 3 0 0 0-3 3 3 3 0 0 0 3 3 3 3 0 0 0 6e-3 0v-6a3 3 0 0 0-6e-3 0zm7.676 4.65-5.143 3.055a3 3 0 0 0 2.467 1.295 3 3 0 0 0 3-3 3 3 0 0 0-0.324-1.35z" fill="currentColor" opacity=".3"/>
</svg>

<svg xmlns="http://www.w3.org/2000/svg" width="24" height="24" version="1.1">
 <defs>
  <style id="current-color-scheme" type="text/css">
   .ColorScheme-Text { color:#ebdbb2; } .ColorScheme-Highlight { color:#458588; }
  </style>
 </defs>
 <path style="fill:currentColor" class="ColorScheme-Text" d="M 9,4 A 5,5 0 0 0 4,9 5,5 0 0 0 4.305,10.687 3,3 0 0 1 7,9 3,3 0 0 1 7.006,9 V 6.404 c 0,0 -0.023,-0.266 0.185,-0.371 0.203,-0.101 0.397,0.061 0.397,0.061 l 1.969,1.17 A 3,3 0 0 1 12,6 3,3 0 0 1 13.152,6.232 5,5 0 0 0 9,4 Z m 5.24,3.008 A 3,3 0 0 1 15,9 3,3 0 0 1 14.691,10.318 l 2.026,1.205 c 0,0 0.283,0.14 0.283,0.473 0,0.334 -0.287,0.443 -0.287,0.443 l -2.035,1.209 A 3,3 0 0 1 15,15 3,3 0 0 1 14.242,16.988 5,5 0 0 0 19,12 5,5 0 0 0 14.24,7.008 Z M 4.303,13.303 A 5,5 0 0 0 4,15 5,5 0 0 0 9,20 5,5 0 0 0 13.158,17.768 3,3 0 0 1 12,18 3,3 0 0 1 9.535,16.705 l -2.06,1.225 c 0,0 -0.14,0.122 -0.319,0.043 C 6.953,17.882 7.006,17.65 7.006,17.65 V 15 A 3,3 0 0 1 7,15 3,3 0 0 1 4.303,13.303 Z"/>
 <path style="opacity:0.3;fill:currentColor" class="ColorScheme-Text" d="M 12,6 A 3,3 0 0 0 9.557,7.266 l 2.672,1.587 2.464,1.467 A 3,3 0 0 0 15,9 3,3 0 0 0 12,6 Z M 7,9 a 3,3 0 0 0 -3,3 3,3 0 0 0 3,3 3,3 0 0 0 0.006,0 V 11.982 9 A 3,3 0 0 0 7,9 Z m 7.676,4.65 -2.457,1.459 -2.686,1.596 A 3,3 0 0 0 12,18 3,3 0 0 0 15,15 3,3 0 0 0 14.676,13.65 Z"/>
</svg>
